icons/Logos/zhihu-line.svg

<svg viewBox="0 0 24 24" xmlns="http://www.w3.org/2000/svg"><path d="M12.3445 17.9633L10.6572 19.037L8.52534 15.687C8.0855 17.089 7.3539 18.3525 6.38696 19.5123C5.98479 19.9947 5.5676 20.4299 5.08571 20.8876C4.93103 21.0345 4.31113 21.604 4.20793 21.7072L2.79372 20.293C2.93256 20.1542 3.58085 19.5585 3.70848 19.4373C4.13828 19.0292 4.50381 18.6478 4.8508 18.2316C6.11713 16.7127 6.87997 15.0205 6.98764 13.0001H3.00082V11.0001H7.00082V7.00013H6.13284C5.44422 8.26619 4.57451 9.22211 3.51532 9.85763L2.48633 8.14264C3.88223 7.3051 4.91211 5.53959 5.52464 2.7832L7.47701 3.21706C7.33636 3.85 7.17352 4.44451 6.98811 5.00013H11.5008V7.00013H9.00082V11.0001H11.5008V13.0001H9.18613L12.3445 17.9633ZM16.1833 17.8929L17.2993 17.0001H19.0008V7.00013H15.0008V17.0001H15.7369L16.1833 17.8929ZM13.0008 5.00013H21.0008V19.0001H18.0008L15.5008 21.0001L14.5008 19.0001H13.0008V5.00013Z"/></svg>

<svg xmlns="http://www.w3.org/2000/svg" viewBox="0 0 24 24">
    <g>
        <path fill="none" d="M0 0h24v24H0z"/>
        <path d="M12.344 17.963l-1.688 1.074-2.131-3.35c-.44 1.402-1.172 2.665-2.139 3.825-.402.483-.82.918-1.301 1.375-.155.147-.775.717-.878.82l-1.414-1.414c.139-.139.787-.735.915-.856.43-.408.795-.79 1.142-1.206 1.266-1.518 2.03-3.21 2.137-5.231H3v-2h4V7h-.868c-.689 1.266-1.558 2.222-2.618 2.857L2.486 8.143c1.395-.838 2.425-2.604 3.038-5.36l1.952.434c-.14.633-.303 1.227-.489 1.783H11.5v2H9v4h2.5v2H9.185l3.159 4.963zm3.838-.07L17.298 17H19V7h-4v10h.736l.446.893zM13 5h8v14h-3l-2.5 2-1-2H13V5z"/>
    </g>
</svg>
